_inc/systems/logos/xegs.svg

<svg xmlns="http://www.w3.org/2000/svg" viewBox="0 0 3725.9 1469.8"><path d="M3658.2 59.8v199.7h-673.4v312.4h617.3l-130.6 164.6h-486.7v508.8H3602L3471.5 1410h-761.3V736.6h-207.4l536.8-676.7h618.6m-973-.1-506 637.9-29.5 37.2 29.5 37.2 424.3 534.9 81.7 103H2449l-370.5-467.1-46.9-59.1-46.9 59.1-370.5 467.1H1378l506-637.9 29.5-37.2-29.5-37.2-506-637.9h236.3l370.5 467.1 46.9 59.1 46.9-59.1L2449 59.8zM1643.1 0h-389l583 734.9-583 734.9h389l388.5-489.7 388.5 489.7h1080.3l225.5-284.3h-681.3V796.4h455.8l225.5-284.3h-681.3V319.3H3718V0h-707.3L2379 796.4h271.4v473.4l-424.3-534.9L2809 0h-389l-388.5 489.7m-1429.8-3.1H320.2v75.9h103.7v421.8h74.2V562.5h103.7c-.1-25.4-.1-50.6-.1-75.9m-375.4 12.3c-10.2-8.9-23.5-13.2-36.8-13.2-17.6 0-35.3 7.4-46.3 21.5-11 12.3-12.9 29.1-17.7 44.2C83.6 695.6 41.8 839.9 0 984.1h77.4c12.2-41.8 24.2-83.6 36.5-125.2 33.5 0 66.9-.1 100.3-.1 16.7 0 33.4 0 50.2.1 12.2 41.8 24.2 83.6 36.3 125.2h77.8c-44-151.3-88.1-302.4-132.1-453.7-3.6-11.9-10.3-23.2-20.1-31.5M170.8 788c-12.2 0-24.3 0-36.5-.1 18.2-62.7 36.3-125.4 54.7-188.1q27.45 94.05 54.6 188.1c-24.2 0-48.5.1-72.8.1m581.7-300.7q-6.9-1.8-14.1-1.8c-19 0-37.8 9.3-48.6 24.9-8.6 11.3-10.3 25.7-14.6 38.9-42.1 144.9-84.3 289.9-126.1 435h77.3c12-41.8 24.3-83.4 36.3-125.2H813c12.2 41.8 24.1 83.4 36.1 125.2 26-.2 51.9 0 78-.2-43.9-151.1-88.1-302.2-132-453.3-5.4-20.6-21.5-38.7-42.6-43.5m-69.1 300.8c18-62.9 36.3-125.8 54.5-188.5 18 62.9 36.5 125.6 54.5 188.5z" class="st0" style="fill:#fff"/><path d="M1320.1 984.3h78.6V486.6h-78.6zm-155.2-206.8c14.6-10.8 31.5-18 45.1-30.2 25.7-22.3 39.7-55.7 42.3-89.1 3.8-31.9 2.2-65.8-12.7-94.9-21.6-44.9-69-75.9-118.9-76.8-19.8 0-39.4.1-59.2.1-9.9 0-19.7 0-29.6-.1h-1.8c-6.9 0-13.8.9-20.4 3.1-24.3 7.7-42.5 31.9-42.8 57.6v437.1h74.9c0-135.3-.2-270.7 0-406 0-8.6 7.9-16.1 16.5-16.1h.3c12.8 0 25.6.1 38.4.1 6.4 0 12.8 0 19.2-.1h1.9c27 0 52.2 20.9 58 47.2 5 20.7 5.7 44-5.7 63-14.7 25.2-41.1 41.1-67.8 51.4-14 5.5-26.6 15.9-31.9 30.3-6.7 18.7-3.8 40.4 7.5 56.9 38.2 57.7 76.2 115.6 114.6 173.4h88.1c-40.1-60.1-81-119.8-120.3-180.4-4.1-8.7-3.8-20.5 4.3-26.5" class="st0" style="fill:#fff"/></svg>

<?xml version="1.0" encoding="utf-8"?>
<svg version="1.1" viewBox="0 0 3725.9 1469.8" xmlns="http://www.w3.org/2000/svg">
  <path class="st0" d="M 3658.2 59.8 L 3658.2 259.5 L 3044.6 259.5 L 2984.8 259.5 L 2984.8 319.3 L 2984.8 512.1 L 2984.8 571.9 L 3044.6 571.9 L 3602.1 571.9 L 3471.5 736.5 L 3044.6 736.5 L 2984.8 736.5 L 2984.8 796.3 L 2984.8 1185.5 L 2984.8 1245.3 L 3044.6 1245.3 L 3336.9 1245.3 L 3485 1245.3 L 3602 1245.3 L 3471.5 1410 L 3111.4 1410 L 2809 1410 L 2710.2 1410 L 2710.2 1269.8 L 2710.2 796.4 L 2710.2 736.6 L 2650.4 736.6 L 2502.8 736.6 L 3039.6 59.9 L 3399.7 59.9 L 3658.2 59.9 M 2685.2 59.8 L 2179.2 697.7 L 2149.7 734.9 L 2179.2 772.1 L 2603.5 1307 L 2685.2 1410 L 2670.3 1410 L 2449 1410 L 2078.5 942.9 L 2031.6 883.8 L 1984.7 942.9 L 1614.2 1410 L 1378 1410 L 1884 772.1 L 1913.5 734.9 L 1884 697.7 L 1378 59.8 L 1614.3 59.8 L 1984.8 526.9 L 2031.7 586 L 2078.6 526.9 L 2449 59.8 L 2685.2 59.8 M 1643.1 0 L 1254.1 0 L 1837.1 734.9 L 1254.1 1469.8 L 1643.1 1469.8 L 2031.6 980.1 L 2420.1 1469.8 L 2670.3 1469.8 L 2809 1469.8 L 3111.4 1469.8 L 3485 1469.8 L 3500.4 1469.8 L 3725.9 1185.5 L 3485 1185.5 L 3336.9 1185.5 L 3044.6 1185.5 L 3044.6 796.4 L 3500.4 796.4 L 3725.9 512.1 L 3044.6 512.1 L 3044.6 319.3 L 3718 319.3 L 3718 0 L 3718 0 L 3399.7 0 L 3025.9 0 L 3010.7 0 L 2379 796.4 L 2650.4 796.4 L 2650.4 1269.8 L 2226.1 734.9 L 2809 0 L 2420 0 L 2031.5 489.7" style="fill: rgb(255, 255, 255);"/>
  <path class="st0" d="M 601.7 486.6 C 508 486.6 414.1 486.6 320.2 486.6 C 320.2 512 320.2 537.1 320.2 562.5 C 354.8 562.5 389.2 562.5 423.9 562.5 C 423.9 703.2 423.9 843.6 423.9 984.3 C 448.6 984.3 473.4 984.3 498.1 984.3 C 498.1 843.6 498.1 703.2 498.1 562.5 C 532.7 562.5 567.1 562.5 601.8 562.5 C 601.7 537.1 601.7 511.9 601.7 486.6 Z" style="fill: rgb(255, 255, 255);"/>
  <path class="st0" d="M 226.3 498.9 C 216.1 490 202.8 485.7 189.5 485.7 C 171.9 485.7 154.2 493.1 143.2 507.2 C 132.2 519.5 130.3 536.3 125.5 551.4 C 83.6 695.6 41.8 839.9 0 984.1 C 25.9 984.1 51.6 984.1 77.4 984.1 C 89.6 942.3 101.6 900.5 113.9 858.9 C 147.4 858.9 180.8 858.8 214.2 858.8 C 230.9 858.8 247.6 858.8 264.4 858.9 C 276.6 900.7 288.6 942.5 300.7 984.1 C 326.6 984.1 352.6 984.1 378.5 984.1 C 334.5 832.8 290.4 681.7 246.4 530.4 C 242.8 518.5 236.1 507.2 226.3 498.9 Z M 170.8 788 C 158.6 788 146.5 788 134.3 787.9 C 152.5 725.2 170.6 662.5 189 599.8 C 207.3 662.5 225.5 725.2 243.6 787.9 C 219.4 787.9 195.1 788 170.8 788 Z" style="fill: rgb(255, 255, 255);"/>
  <path class="st0" d="M 752.5 487.3 C 747.9 486.1 743.2 485.5 738.4 485.5 C 719.4 485.5 700.6 494.8 689.8 510.4 C 681.2 521.7 679.5 536.1 675.2 549.3 C 633.1 694.2 590.9 839.2 549.1 984.3 C 574.8 984.3 600.7 984.3 626.4 984.3 C 638.4 942.5 650.7 900.9 662.7 859.1 C 712.7 859.1 762.9 859.1 813 859.1 C 825.2 900.9 837.1 942.5 849.1 984.3 C 875.1 984.1 901 984.3 927.1 984.1 C 883.2 833 839 681.9 795.1 530.8 C 789.7 510.2 773.6 492.1 752.5 487.3 Z M 683.4 788.1 C 701.4 725.2 719.7 662.3 737.9 599.6 C 755.9 662.5 774.4 725.2 792.4 788.1 C 756.1 788.1 719.8 788.1 683.4 788.1 Z" style="fill: rgb(255, 255, 255);"/>
  <path class="st0" d="M 1320.1 984.3 C 1346.3 984.3 1398.7 984.3 1398.7 984.3 L 1398.7 486.6 L 1320.1 486.6 C 1320.1 486.6 1320.1 818.4 1320.1 984.3 Z" style="fill: rgb(255, 255, 255);"/>
  <path class="st0" d="M 1164.9 777.5 C 1179.5 766.7 1196.4 759.5 1210 747.3 C 1235.7 725 1249.7 691.6 1252.3 658.2 C 1256.1 626.3 1254.5 592.4 1239.6 563.3 C 1218 518.4 1170.6 487.4 1120.7 486.5 C 1100.9 486.5 1081.3 486.6 1061.5 486.6 C 1051.6 486.6 1041.8 486.6 1031.9 486.5 C 1031.3 486.5 1030.7 486.5 1030.1 486.5 C 1023.2 486.5 1016.3 487.4 1009.7 489.6 C 985.4 497.3 967.2 521.5 966.9 547.2 C 966.9 693 966.9 838.5 966.9 984.3 C 991.9 984.3 1016.8 984.3 1041.8 984.3 C 1041.8 849 1041.6 713.6 1041.8 578.3 C 1041.8 569.7 1049.7 562.2 1058.3 562.2 C 1058.4 562.2 1058.5 562.2 1058.6 562.2 C 1071.4 562.2 1084.2 562.3 1097 562.3 C 1103.4 562.3 1109.8 562.3 1116.2 562.2 C 1116.8 562.2 1117.5 562.2 1118.1 562.2 C 1145.1 562.2 1170.3 583.1 1176.1 609.4 C 1181.1 630.1 1181.8 653.4 1170.4 672.4 C 1155.7 697.6 1129.3 713.5 1102.6 723.8 C 1088.6 729.3 1076 739.7 1070.7 754.1 C 1064 772.8 1066.9 794.5 1078.2 811 C 1116.4 868.7 1154.4 926.6 1192.8 984.4 C 1222.3 984.4 1251.6 984.4 1280.9 984.4 C 1240.8 924.3 1199.9 864.6 1160.6 804 C 1156.5 795.3 1156.8 783.5 1164.9 777.5 Z" style="fill: rgb(255, 255, 255);"/>
</svg>
